rospo-icon-theme-classic-common/32x32/places/folder-black-music.svg

<svg height="32" width="32" xmlns="http://www.w3.org/2000/svg"><rect height="16" opacity=".2" rx="1.25" width="25" x="3" y="12"/><path d="m3 21.75c0 .692.5575 1.25 1.25 1.25h22.5c.692 0 1.25-.558 1.25-1.25v-13.5c0-.6925-.558-1.25-1.25-1.25h-12.75v-.75c0-.6925-.557-1.25-1.25-1.25h-8.5c-.6925 0-1.25.5575-1.25 1.25" fill="#3f3f3f"/><rect height="16" opacity=".2" rx="1.25" width="25" x="3" y="10"/><rect fill="#dcdcdc" height="10" rx="1.25" width="21" x="5" y="9"/><rect fill="#4f4f4f" height="16" rx="1.25" width="25" x="3" y="11"/><path d="m4.25 5c-.6925 0-1.25.5575-1.25 1.25v1c0-.6925.5575-1.25 1.25-1.25h8.5c.693 0 1.25.5575 1.25 1.25v.75h12.75c.692 0 1.25.5575 1.25 1.25v-1c0-.6925-.558-1.25-1.25-1.25h-12.75v-.75c0-.6925-.557-1.25-1.25-1.25z" fill="#fff" opacity=".1"/><path d="m14 19.27c-.3-.18-.65-.27-1-.27-1.1 0-2 .9-2 2s .9 2 2 2 2-.9 2-2v-5h4v3.27c-.3-.18-.65-.27-1-.27-1.1 0-2 .9-2 2s .9 2 2 2 2-.9 2-2v-7h-6" fill="#c2c2c2"/></svg>

<svg xmlns="http://www.w3.org/2000/svg" width="32" height="32" version="1">
 <rect style="opacity:0.2" width="25" height="16" x="3" y="12" rx="1.25" ry="1.25"/>
 <path style="fill:#3f3f3f" d="M 3,21.75 C 3,22.442 3.5575,23 4.25,23 H 26.75 C 27.442,23 28,22.442 28,21.75 V 8.25 C 28,7.5575 27.442,7 26.75,7 H 14 V 6.25 C 14,5.5575 13.443,5 12.75,5 H 4.25 C 3.5575,5 3,5.5575 3,6.25"/>
 <rect style="opacity:0.2" width="25" height="16" x="3" y="10" rx="1.25" ry="1.25"/>
 <rect style="fill:#dcdcdc" width="21" height="10" x="5" y="9" rx="1.25" ry="1.25"/>
 <rect style="fill:#4f4f4f" width="25" height="16" x="3" y="11" rx="1.25" ry="1.25"/>
 <path style="opacity:0.1;fill:#ffffff" d="M 4.25 5 C 3.5575 5 3 5.5575 3 6.25 L 3 7.25 C 3 6.5575 3.5575 6 4.25 6 L 12.75 6 C 13.443 6 14 6.5575 14 7.25 L 14 8 L 26.75 8 C 27.442 8 28 8.5575 28 9.25 L 28 8.25 C 28 7.5575 27.442 7 26.75 7 L 14 7 L 14 6.25 C 14 5.5575 13.443 5 12.75 5 L 4.25 5 z"/>
 <path style="fill:#c2c2c2" d="M 14,19.27 C 13.7,19.09 13.35,19 13,19 11.9,19 11,19.9 11,21 11,22.1 11.9,23 13,23 14.1,23 15,22.1 15,21 V 16 H 19 V 19.27 C 18.7,19.09 18.35,19 18,19 16.9,19 16,19.9 16,21 16,22.1 16.9,23 18,23 19.1,23 20,22.1 20,21 V 14 H 14"/>
</svg>
